X:0888
M:C
L:1/8
Q:1/4=120
K:G
e|e>dBd  ed```````Bd |Te>dgd  e/d/c/B/ Ad|e>dBd  e/e/e e>f|g>ef>d e>dBd|
  e>dgB  c/B/A/G/ A>B| D<DD>B A>G``````Ae|dG`B>A BGG     |]

